flaticon/files-and-folders/clipboard.svg

<svg xmlns="http://www.w3.org/2000/svg" width="32" height="32" viewBox="0 0 24 24">
    <path d="M 20 2.800781 L 16.398438 2.800781 L 16.398438 2.398438 C 16.398438 1.960938 16.039062 1.601562 15.601562 1.601562 L 14.398438 1.601562 L 14.398438 1.199219 C 14.398438 0.519531 13.878906 0 13.199219 0 L 10.800781 0 C 10.121094 0 9.601562 0.519531 9.601562 1.199219 L 9.601562 1.601562 L 8.398438 1.601562 C 7.960938 1.601562 7.601562 1.960938 7.601562 2.398438 L 7.601562 2.800781 L 4 2.800781 C 3.761719 2.800781 3.601562 2.960938 3.601562 3.199219 L 3.601562 23.601562 C 3.601562 23.839844 3.761719 24 4 24 L 20 24 C 20.238281 24 20.398438 23.839844 20.398438 23.601562 L 20.398438 3.199219 C 20.398438 2.960938 20.238281 2.800781 20 2.800781 Z M 17.601562 18 L 14.800781 18 C 14.558594 18 14.398438 18.160156 14.398438 18.398438 L 14.398438 21.199219 L 6.398438 21.199219 L 6.398438 5.199219 L 7.601562 5.199219 C 7.601562 5.640625 7.960938 6 8.398438 6 L 15.601562 6 C 16.039062 6 16.398438 5.640625 16.398438 5.199219 L 17.601562 5.199219 Z M 17.039062 18.800781 L 15.199219 20.640625 L 15.199219 18.800781 Z M 8.398438 2.398438 L 10 2.398438 C 10.238281 2.398438 10.398438 2.238281 10.398438 2 L 10.398438 1.199219 C 10.398438 0.960938 10.558594 0.800781 10.800781 0.800781 L 13.199219 0.800781 C 13.441406 0.800781 13.601562 0.960938 13.601562 1.199219 L 13.601562 2 C 13.601562 2.238281 13.761719 2.398438 14 2.398438 L 15.601562 2.398438 L 15.601562 5.199219 L 8.398438 5.199219 Z M 19.601562 23.199219 L 4.398438 23.199219 L 4.398438 3.601562 L 7.601562 3.601562 L 7.601562 4.398438 L 6 4.398438 C 5.761719 4.398438 5.601562 4.558594 5.601562 4.800781 L 5.601562 21.601562 C 5.601562 21.839844 5.761719 22 6 22 L 14.800781 22 C 14.960938 22 15.082031 21.929688 15.148438 21.8125 L 18.210938 18.75 C 18.308594 18.695312 18.371094 18.601562 18.394531 18.484375 C 18.402344 18.449219 18.402344 18.414062 18.398438 18.378906 L 18.398438 4.800781 C 18.398438 4.558594 18.238281 4.398438 18 4.398438 L 16.398438 4.398438 L 16.398438 3.601562 L 19.601562 3.601562 Z M 19.601562 23.199219"/>
    <path d="M10.398438 7.199219L8 7.199219C7.761719 7.199219 7.601562 7.359375 7.601562 7.601562L7.601562 10C7.601562 10.238281 7.761719 10.398438 8 10.398438L10.398438 10.398438C10.640625 10.398438 10.800781 10.238281 10.800781 10L10.800781 7.601562C10.800781 7.359375 10.640625 7.199219 10.398438 7.199219zM10 9.601562L8.398438 9.601562 8.398438 8 10 8zM10.398438 11.601562L8 11.601562C7.761719 11.601562 7.601562 11.761719 7.601562 12L7.601562 14.398438C7.601562 14.640625 7.761719 14.800781 8 14.800781L10.398438 14.800781C10.640625 14.800781 10.800781 14.640625 10.800781 14.398438L10.800781 12C10.800781 11.761719 10.640625 11.601562 10.398438 11.601562zM10 14L8.398438 14 8.398438 12.398438 10 12.398438zM10.398438 16L8 16C7.761719 16 7.601562 16.160156 7.601562 16.398438L7.601562 18.800781C7.601562 19.039062 7.761719 19.199219 8 19.199219L10.398438 19.199219C10.640625 19.199219 10.800781 19.039062 10.800781 18.800781L10.800781 16.398438C10.800781 16.160156 10.640625 16 10.398438 16zM10 18.398438L8.398438 18.398438 8.398438 16.800781 10 16.800781zM16 7.199219L12.398438 7.199219C12.160156 7.199219 12 7.359375 12 7.601562 12 7.839844 12.160156 8 12.398438 8L16 8C16.238281 8 16.398438 7.839844 16.398438 7.601562 16.398438 7.359375 16.238281 7.199219 16 7.199219zM12.398438 10L14.800781 10C15.039062 10 15.199219 9.839844 15.199219 9.601562 15.199219 9.359375 15.039062 9.199219 14.800781 9.199219L12.398438 9.199219C12.160156 9.199219 12 9.359375 12 9.601562 12 9.839844 12.160156 10 12.398438 10zM16 11.601562L12.398438 11.601562C12.160156 11.601562 12 11.761719 12 12 12 12.238281 12.160156 12.398438 12.398438 12.398438L16 12.398438C16.238281 12.398438 16.398438 12.238281 16.398438 12 16.398438 11.761719 16.238281 11.601562 16 11.601562zM12.398438 14.398438L14.800781 14.398438C15.039062 14.398438 15.199219 14.238281 15.199219 14 15.199219 13.761719 15.039062 13.601562 14.800781 13.601562L12.398438 13.601562C12.160156 13.601562 12 13.761719 12 14 12 14.238281 12.160156 14.398438 12.398438 14.398438zM16 16.398438L12.398438 16.398438C12.160156 16.398438 12 16.558594 12 16.800781 12 17.039062 12.160156 17.199219 12.398438 17.199219L16 17.199219C16.238281 17.199219 16.398438 17.039062 16.398438 16.800781 16.398438 16.558594 16.238281 16.398438 16 16.398438zM13.199219 18.398438L12.398438 18.398438C12.160156 18.398438 12 18.558594 12 18.800781 12 19.039062 12.160156 19.199219 12.398438 19.199219L13.199219 19.199219C13.441406 19.199219 13.601562 19.039062 13.601562 18.800781 13.601562 18.558594 13.441406 18.398438 13.199219 18.398438zM13.199219 18.398438"/>
</svg>

<svg xmlns="http://www.w3.org/2000/svg" width="32" height="32" viewBox="0 0 24 24">
    <path d="M20 2.8h-3.602v-.402a.8.8 0 0 0-.796-.796h-1.204v-.403C14.398.52 13.878 0 13.2 0h-2.398c-.68 0-1.2.52-1.2 1.2v.402H8.399a.8.8 0 0 0-.796.796v.403H4c-.238 0-.398.16-.398.398v20.403c0 .238.16.398.398.398h16c.238 0 .398-.16.398-.398V3.199c0-.238-.16-.398-.398-.398zM17.602 18H14.8c-.242 0-.403.16-.403.398V21.2h-8v-16h1.204c0 .442.359.801.796.801h7.204c.437 0 .796-.36.796-.8h1.204zm-.563.8l-1.84 1.84V18.8zM8.4 2.399H10c.238 0 .398-.16.398-.398v-.8c0-.24.16-.4.403-.4h2.398c.242 0 .403.16.403.4V2c0 .238.16.398.398.398h1.602V5.2H8.398zM19.601 23.2H4.398V3.602h3.204v.796H6c-.238 0-.398.16-.398.403v16.8c0 .239.16.399.398.399h8.8a.38.38 0 0 0 .348-.188l3.063-3.062a.378.378 0 0 0 .187-.371V4.8c0-.242-.16-.403-.398-.403h-1.602v-.796h3.204zm0 0"/>
    <path d="M10.398 7.2H8c-.238 0-.398.16-.398.402V10c0 .238.16.398.398.398h2.398c.243 0 .403-.16.403-.398V7.602c0-.243-.16-.403-.403-.403zM10 9.601H8.398V8H10zm0 0M10.398 11.602H8c-.238 0-.398.16-.398.398v2.398c0 .243.16.403.398.403h2.398c.243 0 .403-.16.403-.403V12c0-.238-.16-.398-.403-.398zM10 14H8.398v-1.602H10zm0 0M10.398 16H8c-.238 0-.398.16-.398.398v2.403c0 .238.16.398.398.398h2.398c.243 0 .403-.16.403-.398v-2.403c0-.238-.16-.398-.403-.398zM10 18.398H8.398v-1.597H10zm0 0M16 7.2h-3.602c-.238 0-.398.16-.398.402 0 .238.16.398.398.398H16c.238 0 .398-.16.398-.398 0-.243-.16-.403-.398-.403zm0 0M12.398 10h2.403c.238 0 .398-.16.398-.398 0-.243-.16-.403-.398-.403h-2.403c-.238 0-.398.16-.398.403 0 .238.16.398.398.398zm0 0M16 11.602h-3.602c-.238 0-.398.16-.398.398 0 .238.16.398.398.398H16c.238 0 .398-.16.398-.398 0-.238-.16-.398-.398-.398zm0 0M12.398 14.398h2.403c.238 0 .398-.16.398-.398 0-.238-.16-.398-.398-.398h-2.403c-.238 0-.398.16-.398.398 0 .238.16.398.398.398zm0 0M16 16.398h-3.602c-.238 0-.398.16-.398.403 0 .238.16.398.398.398H16c.238 0 .398-.16.398-.398 0-.242-.16-.403-.398-.403zm0 0M13.2 18.398h-.802c-.238 0-.398.16-.398.403 0 .238.16.398.398.398h.801c.242 0 .403-.16.403-.398 0-.242-.16-.403-.403-.403zm0 0"/>
</svg>
